src/pages/Main/ui/TimeLine/images/hands.svg

<svg fill="none" height="28" viewBox="0 0 41 28" width="41" xmlns="http://www.w3.org/2000/svg"><g fill="#fff"><path d="m36.2821 13.9173c-.8026 0-1.5746-.4482-1.9466-1.2165l-4.0561-8.36403c-.5198-1.07038-.0697-2.36347 1.0018-2.88266l2.561-1.238805c1.0729-.517793 2.366-.069596 2.8857 1.000785l4.0562 8.36403c.2508.51638.2842 1.10238.0947 1.64808-.1895.5456-.5796.984-1.0966 1.2346l-2.561 1.2402c-.3024.1461-.6229.2157-.9378.2157zm-1.5007-13.083984c-.1937 0-.3888.041757-.5741.132232l-2.561 1.238802c-.6563.31736-.9322 1.11075-.6145 1.76635l4.0561 8.364c.3191.657 1.1119.9298 1.7682.6139l2.5611-1.2402c.3163-.1531.5545-.4218.6716-.7572.117-.3355.0961-.6932-.0572-1.00918l-4.0561-8.36403c-.2285-.47047-.7023-.746066-1.1941-.746066z"/><path d="m4.6258 13.8449c-.36367 0-.73013-.0918-1.06733-.2839l-2.47046-1.41c-1.0338888-.5902-1.394774-1.9111-.803981-2.94393l4.616271-8.06894c.28564-.498308.74963-.857423 1.30699-1.009142.55735-.1517185 1.13978-.0793383 1.63861.206005l2.4705 1.410007c1.0339.59018 1.3947 1.91111.8039 2.94391l-4.61622 8.06889c-.39851.696-1.12864 1.0871-1.87828 1.0871zm2.15556-12.958709c-.11704 0-.23688.015312-.35392.047326-.34277.093263-.62702.313183-.80119.618013l-4.61627 8.06894c-.362279.63333-.140732 1.44203.49326 1.80393l2.47046 1.41c.63399.3619 1.44354.1406 1.80582-.4913l4.61628-8.06898c.3623-.63332.1407-1.44203-.49188-1.80393l-2.47046-1.41001c-.20065-.114136-.42359-.173989-.65071-.173989z"/><path d="m7.80967 14.257c-.10172 0-.20344-.0362-.28286-.1099l-1.57452-1.4518c-.14352-.1322-.17557-.3452-.07942-.515l4.43233-7.74046c.1143-.19905.3679-.26864.5685-.1559l2.8202 1.59375 3.4667-.06264h.0084c.2271 0 .4138.18234.418.41062.0042.23106-.1797.42036-.411.42453l-3.581.06542c-.0753.00139-.1491-.0167-.2132-.05428l-2.5583-1.4462-4.06026 7.09186 1.33067 1.2262c.17.1559.17975.4204.02369.5902-.08221.0891-.19507.1336-.30793.1336z"/><path d="m22.914 27.508c-.5769 0-1.1231-.213-1.5467-.6055l-2.1709-2.0002c-.1699-.1559-.1797-.4204-.0236-.5902.156-.1698.4208-.1795.5908-.0236l2.1722 2.0015c.2829.2617.6493.3981 1.0381.3828.3874-.0153.7455-.1795 1.006-.4607l.131-.142c.5392-.5832.5072-1.4963-.0711-2.0364l-1.6428-1.5213c-.0822-.0752-.1295-.181-.1337-.2937-.0056-.1684.0905-.3271.2452-.3981.1533-.0696.333-.0445.457.0696l2.0581 1.9055c.2828.2617.6535.3995 1.0394.3828.3874-.0153.7427-.1782 1.0019-.4579l.1407-.1476c.5337-.579.5016-1.4935-.078-2.0336l-1.6442-1.5185c-.1171-.1072-.1617-.2715-.1171-.4232.0404-.1392.1519-.2505.2912-.2881.1408-.039.2899-.0056.3972.0932l2.0594 1.9056c.5852.54 1.5034.5038 2.0441-.0794l.1337-.1447c.5379-.5818.5044-1.4949-.0724-2.0336l-1.6428-1.5214c-.0822-.0751-.1296-.1809-.1338-.2937-.0056-.1684.0906-.3271.2439-.3981.1532-.0696.333-.0445.457.0696l2.058 1.9056c.2829.2616.6535.3994 1.0395.3827.3873-.0153.744-.1781 1.0046-.4607l.1393-.1461c.5337-.5791.5016-1.4922-.078-2.0336l-7.1174-6.5643c-.17-.15589-.1797-.42036-.0237-.59017.1561-.16982.4222-.17956.5908-.02366l7.1188 6.56423c.9155.8547.9684 2.2967.1184 3.2168l-.1393.1461c-.4083.4413-.9712.7002-1.5829.7238-.2661.0084-.5253-.025-.7719-.1002.046.611-.1505 1.2374-.5964 1.7218l-.1337.1448c-.6173.6653-1.5439.8783-2.3576.6263.0459.6111-.1505 1.2402-.5978 1.7232l-.1407.1476c-.4069.4398-.9698.6987-1.5801.7224-.2662.0097-.5267-.0251-.7733-.1017.0459.6111-.1519 1.2389-.5978 1.7232l-.1324.1434c-.4138.4454-.9781.7043-1.587.728-.0307 0-.0627.0014-.0934.0014z"/><path d="m11.0829 21.1985c-.0766 0-.1532-.0042-.2299-.0111-.5852-.0599-1.1077-.3425-1.47137-.7962l-.11983-.1531c-.7371-.9271-.60473-2.2939.30515-3.1082.00418-.0042.02229-.0181.02647-.0223l2.42308-2.0015c.4779-.3953 1.0771-.5777 1.6832-.515.5852.0612 1.1064.3438 1.4672.7975l.1171.1448s0 .0014.0028.0028c.7273.9172.6075 2.2716-.2717 3.0845-.0056.0055-.0209.0181-.0265.0236l-2.4538 2.0266c-.4166.3452-.9252.529-1.4505.529zm2.3827-5.7848c-.3316 0-.6521.1169-.9168.3354l-2.4231 2.0016c-.57269.5122-.66465 1.3947-.20762 1.9696l.11842.1517c.2188.2728.5406.4468.9001.483.3804.039.7594-.078 1.0632-.3299l2.4537-2.0266c.5518-.5095.6326-1.3669.177-1.9431l-.1171-.1448c-.2215-.2784-.5406-.4524-.9015-.4886-.0487-.0055-.0975-.0069-.1477-.0069z"/><path d="m13.8919 23.7986c-.078 0-.1561-.0042-.2341-.0126-.5838-.0598-1.105-.3438-1.4686-.7989l-.1171-.1448c-.7343-.9242-.6103-2.2841.2801-3.097.0056-.0042.0293-.0251.0348-.0292l2.4357-2.0114c.4779-.3953 1.077-.579 1.6832-.515.5852.0599 1.1063.3438 1.4686.7976l.117.1462s0 0 .0014.0027c.7274.9173.6075 2.2716-.2717 3.0845-.0083.0084-.0181.0167-.0279.0237l-2.4537 2.0266c-.4166.3452-.9238.5289-1.4491.5289zm2.3827-5.7849c-.3317 0-.6521.117-.9169.3355l-2.4356 2.0113c-.5713.5206-.6563 1.3808-.1951 1.9612l.1171.1448c.2229.2798.542.4538.9015.4913.3818.039.7594-.0779 1.0631-.3298l2.4538-2.0267c.5517-.5108.634-1.3668.1769-1.9431l-.117-.1461c-.223-.2784-.542-.4524-.9015-.49-.0488-.0056-.0976-.007-.1463-.007z"/><path d="m17.4186 25.8015c-.0766 0-.1547-.0042-.2313-.0111-.5852-.0599-1.1077-.3424-1.4686-.7976l-.1171-.1448c-.7273-.9117-.6117-2.2632.2634-3.0775l1.0478-.8671c.4779-.3954 1.0757-.5791 1.6832-.5151.5852.0613 1.1063.3438 1.4672.7976l.1171.1462v.0014c.7217.9061.6089 2.2535-.255 3.0677l-1.059.8742c-.4138.3438-.921.5275-1.4463.5275zm.9433-4.5919c-.3316 0-.6521.1169-.9168.3354l-1.0297.8519c-.5393.5025-.6187 1.3557-.1617 1.9278l.1171.1461c.2215.2784.542.451.9015.4886.3818.039.758-.0779 1.0604-.3285l1.0394-.8574c.5295-.5011.6075-1.3516.1547-1.9209l-.1171-.1461c-.2229-.2784-.542-.4524-.9001-.4886-.0488-.0055-.0975-.0069-.1463-.0069z"/><path d="m8.99416 18.004c-.07664 0-.15328-.0042-.23131-.0125-.58382-.0599-1.10634-.3424-1.46862-.7948l-.12122-.1545c-.71899-.9034-.60612-2.2507.25777-3.065l1.05897-.8741c.47514-.3939 1.07012-.5777 1.67765-.515.5838.0598 1.1063.3424 1.4686.7948l.1184.1461v.0014c.7162.9006.6103 2.2438-.2438 3.058-.007.007-.0139.014-.0223.0195l-1.0464.8658c-.4166.3452-.92523.5289-1.45053.5289zm.9461-4.5933c-.33162 0-.6521.1169-.91684.3354l-1.03947.8561c-.52948.5011-.60751 1.3529-.15466 1.9222l.11983.1531c.21876.2728.53924.4454.89734.4816.379.039.75939-.0779 1.06315-.3299l1.03389-.856c.5351-.5192.6047-1.3627.1574-1.9236l-.117-.1462c-.2229-.277-.542-.4496-.9015-.4871-.0488-.0056-.09616-.007-.14493-.007z"/><path d="m31.8162 15.0266c-.1227 0-.2439-.0529-.3261-.1559-.1449-.1795-.1156-.4426.0641-.5873l2.5541-2.0503-3.5657-7.35354-2.6516 1.26943c-.0683.03202-.1435.04594-.2174.03898l-8.8354-.76695-4.7012 3.78462c-.5839.48996-.6717 1.42116-.184 2.02806l.1226.1531c.4989.6208 1.4115.7224 2.0344.2241l3.5029-2.82423c.085-.0682.1923-.10021.2982-.09047l6.6005.57347c.2299.01949.3999.22271.3804.45237-.0196.22967-.2258.39806-.4529.37996l-6.4332-.55812-3.3734 2.71982c-.4751.3814-1.0715.5526-1.679.4858-.6075-.0669-1.1524-.3647-1.5314-.838l-.1226-.1531c-.7775-.9688-.6409-2.40243.3052-3.19443l4.8378-3.89458c.0836-.06821.1909-.10022.2982-.09048l8.8897.77112 2.9234-1.39887c.2076-.09883.457-.01253.5573.19486l3.8917 8.02578c.085.1754.0376.3856-.1142.5081l-2.8133 2.259c-.0766.0627-.17.0919-.2619.0919z"/></g></svg>

<svg width="41" height="28" viewBox="0 0 41 28" fill="none" xmlns="http://www.w3.org/2000/svg">
    <path d="M36.2821 13.9173C35.4795 13.9173 34.7075 13.4691 34.3355 12.7008L30.2794 4.33677C29.7596 3.26639 30.2097 1.9733 31.2812 1.45411L33.8422 0.215305C34.9151 -0.302488 36.2082 0.145709 36.7279 1.21609L40.7841 9.58012C41.0349 10.0965 41.0683 10.6825 40.8788 11.2282C40.6893 11.7738 40.2992 12.2122 39.7822 12.4628L37.2212 13.703C36.9188 13.8491 36.5983 13.9187 36.2834 13.9187L36.2821 13.9173ZM34.7814 0.833316C34.5877 0.833316 34.3926 0.875073 34.2073 0.965548L31.6463 2.20435C30.99 2.52171 30.7141 3.3151 31.0318 3.9707L35.0879 12.3347C35.407 12.9917 36.1998 13.2645 36.8561 12.9486L39.4172 11.7084C39.7335 11.5553 39.9717 11.2866 40.0888 10.9512C40.2058 10.6157 40.1849 10.258 40.0316 9.94202L35.9755 1.57799C35.747 1.10752 35.2732 0.831924 34.7814 0.831924V0.833316Z" fill="white"/>
    <path d="M4.6258 13.8449C4.26213 13.8449 3.89567 13.7531 3.55847 13.561L1.08801 12.151C0.0541212 11.5608 -0.306764 10.2399 0.284029 9.20707L4.9003 1.13813C5.18594 0.639822 5.64993 0.280707 6.20729 0.128988C6.76464 -0.0227305 7.34707 0.0496497 7.8459 0.334993L10.3164 1.745C11.3503 2.33518 11.7111 3.65611 11.1203 4.68891L6.50408 12.7578C6.10557 13.4538 5.37544 13.8449 4.6258 13.8449ZM6.78136 0.886191C6.66432 0.886191 6.54448 0.901503 6.42744 0.933517C6.08467 1.02678 5.80042 1.2467 5.62625 1.55153L1.00998 9.62047C0.647701 10.2538 0.869248 11.0625 1.50324 11.4244L3.9737 12.8344C4.60769 13.1963 5.41724 12.975 5.77952 12.3431L10.3958 4.27412C10.7581 3.6408 10.5365 2.83209 9.90392 2.47019L7.43346 1.06018C7.23281 0.946044 7.00987 0.886191 6.78275 0.886191H6.78136Z" fill="white"/>
    <path d="M7.80967 14.257C7.70795 14.257 7.60623 14.2208 7.52681 14.1471L5.95229 12.6953C5.80877 12.5631 5.77672 12.3501 5.87287 12.1803L10.3052 4.43984C10.4195 4.24079 10.6731 4.1712 10.8737 4.28394L13.6939 5.87769L17.1606 5.81505C17.1606 5.81505 17.1662 5.81505 17.169 5.81505C17.3961 5.81505 17.5828 5.99739 17.587 6.22567C17.5912 6.45673 17.4073 6.64603 17.176 6.6502L13.595 6.71562C13.5197 6.71701 13.4459 6.69892 13.3818 6.66134L10.8235 5.21514L6.76324 12.307L8.09391 13.5332C8.26391 13.6891 8.27366 13.9536 8.1176 14.1234C8.03539 14.2125 7.92253 14.257 7.80967 14.257Z" fill="white"/>
    <path d="M22.914 27.508C22.3371 27.508 21.7909 27.295 21.3673 26.9025L19.1964 24.9023C19.0265 24.7464 19.0167 24.4819 19.1728 24.3121C19.3288 24.1423 19.5936 24.1326 19.7636 24.2885L21.9358 26.29C22.2187 26.5517 22.5851 26.6881 22.9739 26.6728C23.3613 26.6575 23.7194 26.4933 23.9799 26.2121L24.1109 26.0701C24.6501 25.4869 24.6181 24.5738 24.0398 24.0337L22.397 22.5124C22.3148 22.4372 22.2675 22.3314 22.2633 22.2187C22.2577 22.0503 22.3538 21.8916 22.5085 21.8206C22.6618 21.751 22.8415 21.7761 22.9655 21.8902L25.0236 23.7957C25.3064 24.0574 25.6771 24.1952 26.063 24.1785C26.4504 24.1632 26.8057 24.0003 27.0649 23.7206L27.2056 23.573C27.7393 22.994 27.7072 22.0795 27.1276 21.5394L25.4834 20.0209C25.3663 19.9137 25.3217 19.7494 25.3663 19.5977C25.4067 19.4585 25.5182 19.3472 25.6575 19.3096C25.7983 19.2706 25.9474 19.304 26.0547 19.4028L28.1141 21.3084C28.6993 21.8484 29.6175 21.8122 30.1582 21.229L30.2919 21.0843C30.8298 20.5025 30.7963 19.5894 30.2195 19.0507L28.5767 17.5293C28.4945 17.4542 28.4471 17.3484 28.4429 17.2356C28.4373 17.0672 28.5335 16.9085 28.6868 16.8375C28.84 16.7679 29.0198 16.793 29.1438 16.9071L31.2018 18.8127C31.4847 19.0743 31.8553 19.2121 32.2413 19.1954C32.6286 19.1801 32.9853 19.0173 33.2459 18.7347L33.3852 18.5886C33.9189 18.0095 33.8868 17.0964 33.3072 16.555L26.1898 9.9907C26.0198 9.83481 26.0101 9.57034 26.1661 9.40053C26.3222 9.23071 26.5883 9.22097 26.7569 9.37687L33.8757 15.9411C34.7912 16.7958 34.8441 18.2378 33.9941 19.1579L33.8548 19.304C33.4465 19.7453 32.8836 20.0042 32.2719 20.0278C32.0058 20.0362 31.7466 20.0028 31.5 19.9276C31.546 20.5386 31.3495 21.165 30.9036 21.6494L30.7699 21.7942C30.1526 22.4595 29.226 22.6725 28.4123 22.4205C28.4582 23.0316 28.2618 23.6607 27.8145 24.1437L27.6738 24.2913C27.2669 24.7311 26.704 24.99 26.0937 25.0137C25.8275 25.0234 25.567 24.9886 25.3204 24.912C25.3663 25.5231 25.1685 26.1509 24.7226 26.6352L24.5902 26.7786C24.1764 27.224 23.6121 27.4829 23.0032 27.5066C22.9725 27.5066 22.9405 27.508 22.9098 27.508H22.914Z" fill="white"/>
    <path d="M11.0829 21.1985C11.0063 21.1985 10.9297 21.1943 10.853 21.1874C10.2678 21.1275 9.7453 20.8449 9.38163 20.3912L9.2618 20.2381C8.5247 19.311 8.65707 17.9442 9.56695 17.1299C9.57113 17.1257 9.58924 17.1118 9.59342 17.1076L12.0165 15.1061C12.4944 14.7108 13.0936 14.5284 13.6997 14.5911C14.2849 14.6523 14.8061 14.9349 15.1669 15.3886L15.284 15.5334C15.284 15.5334 15.284 15.5348 15.2868 15.5362C16.0141 16.4534 15.8943 17.8078 15.0151 18.6207C15.0095 18.6262 14.9942 18.6388 14.9886 18.6443L12.5348 20.6709C12.1182 21.0161 11.6096 21.1999 11.0843 21.1999L11.0829 21.1985ZM13.4656 15.4137C13.134 15.4137 12.8135 15.5306 12.5488 15.7491L10.1257 17.7507C9.55301 18.2629 9.46105 19.1454 9.91808 19.7203L10.0365 19.872C10.2553 20.1448 10.5771 20.3188 10.9366 20.355C11.317 20.394 11.696 20.277 11.9998 20.0251L14.4535 17.9985C15.0053 17.489 15.0861 16.6316 14.6305 16.0554L14.5134 15.9106C14.2919 15.6322 13.9728 15.4582 13.6119 15.422C13.5632 15.4165 13.5144 15.4151 13.4642 15.4151L13.4656 15.4137Z" fill="white"/>
    <path d="M13.8919 23.7986C13.8139 23.7986 13.7358 23.7944 13.6578 23.786C13.074 23.7262 12.5528 23.4422 12.1892 22.9871L12.0721 22.8423C11.3378 21.9181 11.4618 20.5582 12.3522 19.7453C12.3578 19.7411 12.3815 19.7202 12.387 19.7161L14.8227 17.7047C15.3006 17.3094 15.8997 17.1257 16.5059 17.1897C17.0911 17.2496 17.6122 17.5335 17.9745 17.9873L18.0915 18.1335C18.0915 18.1335 18.0915 18.1335 18.0929 18.1362C18.8203 19.0535 18.7004 20.4078 17.8212 21.2207C17.8129 21.2291 17.8031 21.2374 17.7933 21.2444L15.3396 23.271C14.923 23.6162 14.4158 23.7999 13.8905 23.7999L13.8919 23.7986ZM16.2746 18.0137C15.9429 18.0137 15.6225 18.1307 15.3577 18.3492L12.9221 20.3605C12.3508 20.8811 12.2658 21.7413 12.727 22.3217L12.8441 22.4665C13.067 22.7463 13.3861 22.9203 13.7456 22.9578C14.1274 22.9968 14.505 22.8799 14.8087 22.628L17.2625 20.6013C17.8142 20.0905 17.8965 19.2345 17.4394 18.6582L17.3224 18.5121C17.0994 18.2337 16.7804 18.0597 16.4209 18.0221C16.3721 18.0165 16.3233 18.0151 16.2746 18.0151V18.0137Z" fill="white"/>
    <path d="M17.4186 25.8015C17.342 25.8015 17.2639 25.7973 17.1873 25.7904C16.6021 25.7305 16.0796 25.448 15.7187 24.9928L15.6016 24.848C14.8743 23.9363 14.9899 22.5848 15.865 21.7705L16.9128 20.9034C17.3907 20.508 17.9885 20.3243 18.596 20.3883C19.1812 20.4496 19.7023 20.7321 20.0632 21.1859L20.1803 21.3321C20.1803 21.3321 20.1803 21.3321 20.1803 21.3335C20.902 22.2396 20.7892 23.587 19.9253 24.4012L18.8663 25.2754C18.4525 25.6192 17.9453 25.8029 17.42 25.8029L17.4186 25.8015ZM18.3619 21.2096C18.0303 21.2096 17.7098 21.3265 17.4451 21.545L16.4154 22.3969C15.8761 22.8994 15.7967 23.7526 16.2537 24.3247L16.3708 24.4708C16.5923 24.7492 16.9128 24.9218 17.2723 24.9594C17.6541 24.9984 18.0303 24.8815 18.3327 24.6309L19.3721 23.7735C19.9016 23.2724 19.9796 22.4219 19.5268 21.8526L19.4097 21.7065C19.1868 21.4281 18.8677 21.2541 18.5096 21.2179C18.4608 21.2124 18.4121 21.211 18.3633 21.211L18.3619 21.2096Z" fill="white"/>
    <path d="M8.99416 18.004C8.91752 18.004 8.84088 17.9998 8.76285 17.9915C8.17903 17.9316 7.65651 17.6491 7.29423 17.1967L7.17301 17.0422C6.45402 16.1388 6.56689 14.7915 7.43078 13.9772L8.48975 13.1031C8.96489 12.7092 9.55987 12.5254 10.1674 12.5881C10.7512 12.6479 11.2737 12.9305 11.636 13.3829L11.7544 13.529C11.7544 13.529 11.7544 13.529 11.7544 13.5304C12.4706 14.431 12.3647 15.7742 11.5106 16.5884C11.5036 16.5954 11.4967 16.6024 11.4883 16.6079L10.4419 17.4737C10.0253 17.8189 9.51667 18.0026 8.99137 18.0026L8.99416 18.004ZM9.94026 13.4107C9.60864 13.4107 9.28816 13.5276 9.02342 13.7461L7.98395 14.6022C7.45447 15.1033 7.37644 15.9551 7.82929 16.5244L7.94912 16.6775C8.16788 16.9503 8.48836 17.1229 8.84646 17.1591C9.22546 17.1981 9.60585 17.0812 9.90961 16.8292L10.9435 15.9732C11.4786 15.454 11.5482 14.6105 11.1009 14.0496L10.9839 13.9034C10.761 13.6264 10.4419 13.4538 10.0824 13.4163C10.0336 13.4107 9.98624 13.4093 9.93747 13.4093L9.94026 13.4107Z" fill="white"/>
    <path d="M31.8162 15.0266C31.6935 15.0266 31.5723 14.9737 31.4901 14.8707C31.3452 14.6912 31.3745 14.4281 31.5542 14.2834L34.1083 12.2331L30.5426 4.87956L27.891 6.14899C27.8227 6.18101 27.7475 6.19493 27.6736 6.18797L18.8382 5.42102L14.137 9.20564C13.5531 9.6956 13.4653 10.6268 13.953 11.2337L14.0756 11.3868C14.5745 12.0076 15.4871 12.1092 16.11 11.6109L19.6129 8.78667C19.6979 8.71847 19.8052 8.68646 19.9111 8.6962L26.5116 9.26967C26.7415 9.28916 26.9115 9.49238 26.892 9.72204C26.8724 9.95171 26.6662 10.1201 26.4391 10.102L20.0059 9.54388L16.6325 12.2637C16.1574 12.6451 15.561 12.8163 14.9535 12.7495C14.346 12.6826 13.8011 12.3848 13.4221 11.9115L13.2995 11.7584C12.522 10.7896 12.6586 9.35597 13.6047 8.56397L18.4425 4.66939C18.5261 4.60118 18.6334 4.56917 18.7407 4.57891L27.6304 5.35003L30.5538 3.95116C30.7614 3.85233 31.0108 3.93863 31.1111 4.14602L35.0028 12.1718C35.0878 12.3472 35.0404 12.5574 34.8886 12.6799L32.0753 14.9389C31.9987 15.0016 31.9053 15.0308 31.8134 15.0308L31.8162 15.0266Z" fill="white"/>
</svg>
